icons/BackBuffer-Large.svg

<svg width="24" height="24" viewBox="0 0 24 24" fill="none" xmlns="http://www.w3.org/2000/svg">
<path fill-rule="evenodd" clip-rule="evenodd" d="M6.05417 8.70266C6.08756 8.67126 6.13167 8.65377 6.17751 8.65377C6.22334 8.65377 6.26745 8.67126 6.30084 8.70266L7.04751 9.44933C7.07891 9.48272 7.0964 9.52683 7.0964 9.57266C7.0964 9.6185 7.07891 9.66261 7.04751 9.696L4.68084 12.0627L7.03417 14.4293C7.06222 14.466 7.07509 14.5121 7.07013 14.558C7.06516 14.6039 7.04274 14.6462 7.00751 14.676L6.26084 15.4227C6.22745 15.4541 6.18334 15.4716 6.13751 15.4716C6.09167 15.4716 6.04756 15.4541 6.01417 15.4227L3.55417 12.956L2.80751 12.2093C2.79015 12.1931 2.77631 12.1735 2.76684 12.1517C2.75738 12.1299 2.75249 12.1064 2.75249 12.0827C2.75249 12.0589 2.75738 12.0354 2.76684 12.0136C2.77631 11.9918 2.79015 11.9722 2.80751 11.956L3.55417 11.2093L6.05417 8.70266ZM13.2142 8.54266C13.4831 8.50959 13.7559 8.53437 14.0145 8.61533C14.273 8.6963 14.5113 8.83159 14.7133 9.01213C14.9153 9.19267 15.0764 9.4143 15.1858 9.66217C15.2952 9.91003 15.3503 10.1784 15.3475 10.4493C15.3585 10.7377 15.2896 11.0236 15.1485 11.2754C15.0073 11.5271 14.7993 11.735 14.5475 11.876C14.824 11.9959 15.0581 12.1959 15.2198 12.4502C15.3814 12.7045 15.463 13.0015 15.4542 13.3027C15.4545 13.5863 15.3949 13.8667 15.2791 14.1256C15.1634 14.3846 14.9942 14.6161 14.7826 14.8049C14.5711 14.9938 14.322 15.1358 14.0517 15.2216C13.7813 15.3074 13.4959 15.335 13.2142 15.3027C12.9165 15.329 12.6165 15.2954 12.3321 15.2038C12.0476 15.1121 11.7845 14.9643 11.5582 14.7691C11.3319 14.5739 11.1471 14.3353 11.0147 14.0674C10.8823 13.7994 10.8051 13.5077 10.7875 13.2093H12.1208C12.1232 13.3445 12.1531 13.4778 12.2088 13.6009C12.2644 13.7241 12.3446 13.8347 12.4445 13.9258C12.5443 14.0169 12.6617 14.0867 12.7895 14.1309C12.9173 14.175 13.0527 14.1927 13.1875 14.1827C13.3081 14.1949 13.4299 14.1815 13.5449 14.1434C13.6599 14.1052 13.7656 14.0432 13.855 13.9614C13.9443 13.8795 14.0154 13.7797 14.0635 13.6685C14.1117 13.5573 14.1357 13.4372 14.1342 13.316C14.1342 12.7627 13.7075 12.4293 13.1008 12.4293H12.6808V11.3427H13.0542C13.6075 11.3427 14.0342 11.0627 14.0342 10.5227C14.0363 10.4118 14.0153 10.3018 13.9726 10.1995C13.93 10.0972 13.8665 10.0049 13.7863 9.92844C13.706 9.85197 13.6108 9.79301 13.5066 9.75529C13.4023 9.71757 13.2914 9.70192 13.1808 9.70933C13.0579 9.70208 12.9348 9.71995 12.819 9.76184C12.7033 9.80373 12.5972 9.86876 12.5074 9.95298C12.4176 10.0372 12.3458 10.1388 12.2966 10.2517C12.2473 10.3645 12.2215 10.4862 12.2208 10.6093H10.8875C10.927 10.0286 11.1929 9.48662 11.6281 9.10007C12.0633 8.71353 12.6329 8.51336 13.2142 8.54266ZM18.6675 8.54933C20.2008 8.54933 21.2475 9.936 21.2475 11.9293C21.2475 13.9227 20.2008 15.3093 18.6875 15.3093C17.1742 15.3093 16.0875 13.9227 16.0875 11.9293C16.0875 9.936 17.1275 8.54933 18.6608 8.54933H18.6675ZM18.6675 9.76266C17.7942 9.76266 17.4208 10.716 17.4208 11.9293C17.4208 13.1427 17.7808 14.096 18.6675 14.096C19.5542 14.096 19.9142 13.1427 19.9142 11.9293C19.9142 10.716 19.5342 9.76266 18.6608 9.76266H18.6675Z" fill="black"/>
</svg>

<svg xmlns="http://www.w3.org/2000/svg" viewBox="0 0 24 24">
  <path d="M6.054 8.703a.18.18 0 01.247 0l.747.746a.18.18 0 010 .247L4.68 12.063l2.353 2.366a.18.18 0 01-.026.247l-.747.747a.18.18 0 01-.247 0l-2.46-2.467-.746-.747a.173.173 0 010-.253l.746-.747 2.5-2.506zm7.16-.16a1.902 1.902 0 012.133 1.906 1.568 1.568 0 01-.8 1.427 1.507 1.507 0 01.907 1.427 2.01 2.01 0 01-2.24 2 2.236 2.236 0 01-2.427-2.094h1.334a.993.993 0 001.066.974.861.861 0 00.947-.867c0-.553-.427-.887-1.033-.887h-.42v-1.086h.373c.553 0 .98-.28.98-.82a.8.8 0 00-.853-.814.907.907 0 00-.96.9h-1.334a2.22 2.22 0 012.327-2.066zm5.454.006c1.533 0 2.58 1.387 2.58 3.38 0 1.994-1.047 3.38-2.56 3.38-1.514 0-2.6-1.386-2.6-3.38 0-1.993 1.04-3.38 2.573-3.38h.006zm0 1.214c-.874 0-1.247.953-1.247 2.166 0 1.214.36 2.167 1.247 2.167.886 0 1.246-.953 1.246-2.167 0-1.213-.38-2.166-1.253-2.166h.006z"/>
</svg>
